X: 21
T:Jean Blanchards
M:3/8
L:1/16
C:Jean Blanchard
R:Bourree
Z:Steve Mansfield
K:G
Bc | d2g2f2 | e4Bc | dedcAc | B2G2Bc | d2g2f2 | e4Bc |
dedcAB | G4 :: Bc | dBGecA | dBGecA | dedcAc |
B2G2Bc | dBGecA | dBGecA | dedcAB | G4 :|

